Catalina-light/actions/16/view-readermode-active.svg

<svg xmlns="http://www.w3.org/2000/svg" width="16" height="16" viewBox="0 0 16 16">
 <defs>
  <style id="current-color-scheme" type="text/css">
   .ColorScheme-Text { color:#5c616c; } .ColorScheme-Highlight { color:#5294e2; }
  </style>
 </defs>
 <path style="fill:currentColor" class="ColorScheme-Text" d="M 10.029297 1 C 9.8821968 1.003 9.7293125 1.0169625 9.5703125 1.0390625 C 9.0034125 1.1178625 8.3186875 1.3915281 7.5546875 1.7988281 C 6.0140875 0.94570816 4.8138406 0.89374685 3.8066406 1.1542969 C 2.7378406 1.4307969 1.868925 1.88425 0.515625 1.84375 L 0 1.828125 L 0 16 L 11.787109 16 C 11.304109 15.467 11 14.769 11 14 C 11 12.816 11.707844 11.790686 12.714844 11.304688 C 12.227844 11.167687 11.735453 11.018814 11.189453 10.882812 C 10.210453 10.637814 9.0982 10.696187 8 11.367188 L 8 2.6699219 C 8.7033 2.2844219 9.2453875 2.0717125 9.6796875 2.0078125 C 9.9188875 1.9726125 10.131891 1.9756531 10.337891 2.0019531 C 10.543891 2.0284531 10.743219 2.079125 10.949219 2.140625 C 11.484219 2.300425 12.143 2.5531719 13 2.7011719 L 13 11.1875 C 13.315 11.0735 13.648 11 14 11 C 14.352 11 14.685 11.0735 15 11.1875 L 15 1.8457031 L 14.482422 1.8632812 C 12.966422 1.9184812 12.212422 1.464575 11.232422 1.171875 C 10.865422 1.062075 10.471297 0.99098 10.029297 1 z M 5.21875 1.9941406 C 5.71765 2.0327406 6.2822 2.213475 7 2.609375 L 7 11.335938 C 5.8956 10.693937 4.7902064 10.645672 3.8164062 10.888672 C 3.1632062 11.050672 2.5692 11.237672 2 11.388672 L 2 2.6640625 C 2.8021 2.5160625 3.4740875 2.2830125 4.0546875 2.1328125 C 4.2857875 2.0730125 4.5090812 2.024 4.7382812 2 C 4.8932813 1.9838 5.05235 1.9813406 5.21875 1.9941406 z M 14 12 A 2 2 0 0 0 12 14 A 2 2 0 0 0 14 16 A 2 2 0 0 0 16 14 A 2 2 0 0 0 14 12 z"/>
</svg>

<svg width="16" height="16" viewBox="0 0 16 16" xmlns="http://www.w3.org/2000/svg">
<defs>
<style id="current-color-scheme" type="text/css">.ColorScheme-Text { color:#5c616c; } .ColorScheme-Highlight { color:#5294e2; }</style>
</defs>
<path class="ColorScheme-Text" d="m10.029 1c-0.1471 3e-3 -0.29998 0.016962-0.45898 0.039062-0.5669 0.0788-1.2516 0.35247-2.0156 0.75977-1.5406-0.85312-2.7408-0.90508-3.748-0.64453-1.0688 0.2765-1.9377 0.72995-3.291 0.68945l-0.51562-0.015625v14.172h11.787c-0.483-0.533-0.78711-1.231-0.78711-2 0-1.184 0.70784-2.2093 1.7148-2.6953-0.487-0.137-0.97939-0.28587-1.5254-0.42188-0.979-0.245-2.0913-0.18662-3.1895 0.48438v-8.6973c0.7033-0.3855 1.2454-0.59821 1.6797-0.66211 0.2392-0.0352 0.4522-0.032159 0.6582-0.0058594 0.206 0.0265 0.40533 0.077172 0.61133 0.13867 0.535 0.1598 1.1938 0.41255 2.0508 0.56055v8.4863c0.315-0.114 0.648-0.1875 1-0.1875s0.685 0.0735 1 0.1875v-9.3418l-0.51758 0.017578c-1.516 0.0552-2.27-0.39871-3.25-0.69141-0.367-0.1098-0.76112-0.1809-1.2031-0.17188zm-4.8105 0.99414c0.4989 0.0386 1.0634 0.21933 1.7812 0.61523v8.7266c-1.1044-0.642-2.2098-0.69027-3.1836-0.44727-0.6532 0.162-1.2472 0.349-1.8164 0.5v-8.7246c0.8021-0.148 1.4741-0.38105 2.0547-0.53125 0.2311-0.0598 0.45439-0.10881 0.68359-0.13281 0.155-0.0162 0.31407-0.018659 0.48047-0.0058594zm8.7812 10.006a2 2 0 0 0-2 2 2 2 0 0 0 2 2 2 2 0 0 0 2-2 2 2 0 0 0-2-2z" fill="currentColor"/>
</svg>
